docs/public/cascara_text.svg

<svg xmlns="http://www.w3.org/2000/svg" width="180" height="40" viewBox="0 0 180 40">
  <defs>
    <linearGradient id="cherry-a" x1="14.645%" x2="85.355%" y1="85.355%" y2="14.645%">
      <stop offset="0%" stop-color="#90023A"/>
      <stop offset="100%" stop-color="#B4104B"/>
    </linearGradient>
    <linearGradient id="cherry-b" x1="9.039%" x2="90.961%" y1="78.681%" y2="21.319%">
      <stop offset="0%" stop-color="#A20943"/>
      <stop offset="100%" stop-color="#C51653"/>
    </linearGradient>
    <linearGradient id="leaf" x1="83.742%" x2="17.104%" y1="108.444%" y2="-6.98%">
      <stop offset="0%" stop-color="#00873E"/>
      <stop offset="100%" stop-color="#006129"/>
    </linearGradient>
    <linearGradient id="cherry-c" x1="50%" x2="50%" y1="100%" y2="0%">
      <stop offset="0%" stop-color="#B4104B"/>
      <stop offset="100%" stop-color="#D91C5C"/>
    </linearGradient>
  </defs>
  <g fill="none" fill-rule="evenodd">
    <path fill="url(#cherry-a)" d="M15,12.5 C15,16.642 18.358,20 22.5,20 L22.5,20 C26.642,20 30,16.642 30,12.5 L30,12.5 C30,8.358 26.642,5 22.5,5 L22.5,5 C18.358,5 15,8.358 15,12.5"/>
    <path fill="url(#cherry-b)" d="M20,25 C20,30.523 24.477,35 30,35 L30,35 C35.523,35 40,30.523 40,25 L40,25 C40,19.477 35.523,15 30,15 L30,15 C24.477,15 20,19.477 20,25"/>
    <path fill="url(#leaf)" d="M2.495,0 C1.718,0.006 0.942,0.062 0.171,0.171 L0.171,0.171 C-0.562,5.396 1.063,10.892 5.085,14.914 L5.085,14.914 C9.108,18.937 14.604,20.563 19.829,19.829 L19.829,19.829 C20.562,14.604 18.937,9.107 14.915,5.085 L14.915,5.085 C11.547,1.718 7.147,0.031 2.737,0 L2.737,0 L2.495,0 Z"/>
    <path fill="url(#cherry-c)" d="M0,27.5 C0,34.403 5.597,40 12.5,40 L12.5,40 C19.403,40 25,34.403 25,27.5 L25,27.5 C25,20.597 19.403,15 12.5,15 L12.5,15 C5.597,15 0,20.597 0,27.5"/>
    <path id="text" fill="#333" d="M57.834 34.962C64.764 34.962 68.376 31.854 68.376 25.512L68.376 24.378C68.376 23.664 67.998 23.244 67.326 23.244L64.428 23.244C63.756 23.244 63.378 23.664 63.378 24.336L63.378 25.512C63.378 29.376 62.034 31.056 57.834 31.056 53.97 31.056 52.122 29.04 52.122 25.05L52.122 14.55C52.122 10.56 53.97 8.544 57.834 8.544 62.034 8.544 63.378 10.224 63.378 14.088L63.378 14.97C63.378 15.642 63.756 16.062 64.428 16.062L67.326 16.062C67.998 16.062 68.376 15.642 68.376 14.928L68.376 14.088C68.376 7.746 64.764 4.638 57.834 4.638 50.862 4.638 46.746 8.334 46.746 15.012L46.746 24.588C46.746 31.266 50.862 34.962 57.834 34.962zM78.7595789 14.968C84.0035789 14.968 86.7015789 17.438 86.7015789 21.124L86.7015789 21.124 86.7015789 28.99 88.8675789 31.156C89.5895789 31.878 89.6655789 32.79 88.9435789 33.512L88.9435789 33.512 88.2595789 34.196C87.5375789 34.918 86.6255789 34.842 85.9035789 34.12L85.9035789 34.12 83.6235789 31.84C82.5215789 33.664 80.4315789 34.918 77.6955789 34.918 72.9075789 34.918 70.4375789 32.638 70.4375789 29.218L70.4375789 29.218 70.4375789 28.914C70.4375789 25.266 72.5655789 23.214 78.1135789 23.214 79.5195789 23.214 80.9255789 23.404 82.1795789 23.67L82.1795789 23.67 82.1795789 20.82C82.1795789 19.11 81.0775789 18.312 78.7595789 18.312 76.3655789 18.312 75.4535789 19.11 75.4535789 20.44L75.4535789 20.44 75.4535789 20.63C75.4535789 21.124 75.2255789 21.428 74.6555789 21.428L74.6555789 21.428 72.0335789 21.428C71.5015789 21.428 71.1975789 21.124 71.1975789 20.592L71.1975789 20.592 71.1975789 20.402C71.1975789 17.02 73.8195789 14.968 78.7595789 14.968zM78.5695789 26.026C75.8715789 26.026 74.8835789 27.052 74.8835789 28.686L74.8835789 28.686 74.8835789 28.99C74.8835789 30.662 75.9475789 31.65 78.4555789 31.65 80.5835789 31.65 82.1795789 30.358 82.1795789 28.458L82.1795789 28.458 82.1795789 26.52C80.9635789 26.178 79.7855789 26.026 78.5695789 26.026zM98.0595789 34.918C103.645579 34.918 106.001579 32.562 106.001579 28.838L106.001579 28.42C106.001579 25.342 104.671579 23.67 100.985579 23.214L96.0835789 22.606C94.9815789 22.454 94.2975789 22.15 94.2975789 20.896L94.2975789 20.478C94.2975789 19.11 95.1335789 18.274 97.9835789 18.274 100.567579 18.274 101.479579 18.958 101.479579 20.326L101.479579 20.516C101.479579 20.896 101.707579 21.162 102.163579 21.162L104.899579 21.162C105.317579 21.162 105.621579 20.858 105.621579 20.402L105.621579 20.25C105.621579 17.096 103.417579 14.968 97.9835789 14.968 92.3595789 14.968 90.1175789 17.324 90.1175789 21.048L90.1175789 21.352C90.1175789 24.43 91.4855789 26.102 95.2095789 26.558L100.111579 27.166C101.175579 27.28 101.821579 27.622 101.821579 28.876L101.821579 29.37C101.821579 30.776 100.719579 31.612 98.0595789 31.612 95.2095789 31.612 94.2595789 30.928 94.2595789 29.522L94.2595789 29.294C94.2595789 28.876 94.0315789 28.648 93.6135789 28.648L90.8775789 28.648C90.4215789 28.648 90.1175789 28.914 90.1175789 29.37L90.1175789 29.598C90.1175789 32.79 92.3975789 34.918 98.0595789 34.918zM116.657579 34.918C121.825579 34.918 124.789579 32.714 124.789579 28.458L124.789579 27.888C124.789579 27.356 124.447579 26.976 123.877579 26.976L121.255579 26.976C120.761579 26.976 120.419579 27.318 120.419579 27.85L120.419579 28.496C120.419579 30.586 119.241579 31.536 116.695579 31.536 114.111579 31.536 112.819579 30.244 112.819579 27.584L112.819579 22.302C112.819579 19.642 114.111579 18.35 116.695579 18.35 119.241579 18.35 120.419579 19.3 120.419579 21.39L120.419579 21.922C120.419579 22.454 120.761579 22.796 121.255579 22.796L123.877579 22.796C124.447579 22.796 124.789579 22.416 124.789579 21.884L124.789579 21.428C124.789579 17.172 121.825579 14.968 116.657579 14.968 111.261579 14.968 108.183579 17.894 108.183579 22.758L108.183579 27.128C108.183579 31.992 111.261579 34.918 116.657579 34.918zM135.293579 14.968C140.537579 14.968 143.235579 17.438 143.235579 21.124L143.235579 21.124 143.235579 28.99 145.401579 31.156C146.123579 31.878 146.199579 32.79 145.477579 33.512L145.477579 33.512 144.793579 34.196C144.071579 34.918 143.159579 34.842 142.437579 34.12L142.437579 34.12 140.157579 31.84C139.055579 33.664 136.965579 34.918 134.229579 34.918 129.441579 34.918 126.971579 32.638 126.971579 29.218L126.971579 29.218 126.971579 28.914C126.971579 25.266 129.099579 23.214 134.647579 23.214 136.053579 23.214 137.459579 23.404 138.713579 23.67L138.713579 23.67 138.713579 20.82C138.713579 19.11 137.611579 18.312 135.293579 18.312 132.899579 18.312 131.987579 19.11 131.987579 20.44L131.987579 20.44 131.987579 20.63C131.987579 21.124 131.759579 21.428 131.189579 21.428L131.189579 21.428 128.567579 21.428C128.035579 21.428 127.731579 21.124 127.731579 20.592L127.731579 20.592 127.731579 20.402C127.731579 17.02 130.353579 14.968 135.293579 14.968zM135.103579 26.026C132.405579 26.026 131.417579 27.052 131.417579 28.686L131.417579 28.686 131.417579 28.99C131.417579 30.662 132.481579 31.65 134.989579 31.65 137.117579 31.65 138.713579 30.358 138.713579 28.458L138.713579 28.458 138.713579 26.52C137.497579 26.178 136.319579 26.026 135.103579 26.026zM156.665579 34.5C157.235579 34.5 157.691579 34.12 157.691579 33.55L157.691579 32.106C157.691579 31.536 157.235579 31.156 156.665579 31.156L154.461579 31.156 154.461579 23.48C154.461579 20.782 156.095579 19.148 158.489579 19.148L159.097579 19.148C160.389579 19.148 161.225579 18.464 161.225579 17.286L161.225579 16.982C161.225579 15.69 160.427579 14.968 158.793579 14.968L158.413579 14.968C156.057579 14.968 154.271579 16.26 153.283579 18.54L150.509579 15.766C149.787579 15.044 148.875579 14.968 148.153579 15.69L147.469579 16.374C146.747579 17.096 146.823579 18.008 147.545579 18.73L149.901579 21.086 149.901579 31.156 147.925579 31.156C147.355579 31.156 146.937579 31.536 146.937579 32.106L146.937579 33.55C146.937579 34.12 147.355579 34.5 147.925579 34.5L156.665579 34.5zM169.487579 14.968C174.731579 14.968 177.429579 17.438 177.429579 21.124L177.429579 21.124 177.429579 28.99 179.595579 31.156C180.317579 31.878 180.393579 32.79 179.671579 33.512L179.671579 33.512 178.987579 34.196C178.265579 34.918 177.353579 34.842 176.631579 34.12L176.631579 34.12 174.351579 31.84C173.249579 33.664 171.159579 34.918 168.423579 34.918 163.635579 34.918 161.165579 32.638 161.165579 29.218L161.165579 29.218 161.165579 28.914C161.165579 25.266 163.293579 23.214 168.841579 23.214 170.247579 23.214 171.653579 23.404 172.907579 23.67L172.907579 23.67 172.907579 20.82C172.907579 19.11 171.805579 18.312 169.487579 18.312 167.093579 18.312 166.181579 19.11 166.181579 20.44L166.181579 20.44 166.181579 20.63C166.181579 21.124 165.953579 21.428 165.383579 21.428L165.383579 21.428 162.761579 21.428C162.229579 21.428 161.925579 21.124 161.925579 20.592L161.925579 20.592 161.925579 20.402C161.925579 17.02 164.547579 14.968 169.487579 14.968zM169.297579 26.026C166.599579 26.026 165.611579 27.052 165.611579 28.686L165.611579 28.686 165.611579 28.99C165.611579 30.662 166.675579 31.65 169.183579 31.65 171.311579 31.65 172.907579 30.358 172.907579 28.458L172.907579 28.458 172.907579 26.52C171.691579 26.178 170.513579 26.026 169.297579 26.026z"/>
  </g>
</svg>

<svg height="40" viewBox="0 0 180 40" width="180" xmlns="http://www.w3.org/2000/svg" xmlns:xlink="http://www.w3.org/1999/xlink"><linearGradient id="a" x1="14.645%" x2="85.355%" y1="85.355%" y2="14.645%"><stop offset="0" stop-color="#90023a"/><stop offset="1" stop-color="#b4104b"/></linearGradient><linearGradient id="b" x1="9.039%" x2="90.961%" y1="78.681%" y2="21.319%"><stop offset="0" stop-color="#a20943"/><stop offset="1" stop-color="#c51653"/></linearGradient><linearGradient id="c" x1="83.742%" x2="17.104%" y1="108.444%" y2="-6.98%"><stop offset="0" stop-color="#00873e"/><stop offset="1" stop-color="#006129"/></linearGradient><linearGradient id="d" x1="50%" x2="50%" y1="100%" y2="0%"><stop offset="0" stop-color="#b4104b"/><stop offset="1" stop-color="#d91c5c"/></linearGradient><g fill="none" fill-rule="evenodd"><path d="m15 12.5c0 4.142 3.358 7.5 7.5 7.5 4.142 0 7.5-3.358 7.5-7.5 0-4.142-3.358-7.5-7.5-7.5-4.142 0-7.5 3.358-7.5 7.5" fill="url(#a)"/><path d="m20 25c0 5.523 4.477 10 10 10 5.523 0 10-4.477 10-10 0-5.523-4.477-10-10-10-5.523 0-10 4.477-10 10" fill="url(#b)"/><path d="m2.495 0c-.777.006-1.553.062-2.324.171-.733 5.225.892 10.721 4.914 14.743 4.023 4.023 9.519 5.649 14.744 4.915.733-5.225-.892-10.722-4.914-14.744-3.368-3.367-7.768-5.054-12.178-5.085z" fill="url(#c)"/><path d="m0 27.5c0 6.903 5.597 12.5 12.5 12.5 6.903 0 12.5-5.597 12.5-12.5 0-6.903-5.597-12.5-12.5-12.5-6.903 0-12.5 5.597-12.5 12.5" fill="url(#d)"/><path d="m57.834 34.962c6.93 0 10.542-3.108 10.542-9.45v-1.134c0-.714-.378-1.134-1.05-1.134h-2.898c-.672 0-1.05.42-1.05 1.092v1.176c0 3.864-1.344 5.544-5.544 5.544-3.864 0-5.712-2.016-5.712-6.006v-10.5c0-3.99 1.848-6.006 5.712-6.006 4.2 0 5.544 1.68 5.544 5.544v.882c0 .672.378 1.092 1.05 1.092h2.898c.672 0 1.05-.42 1.05-1.134v-.84c0-6.342-3.612-9.45-10.542-9.45-6.972 0-11.088 3.696-11.088 10.374v9.576c0 6.678 4.116 10.374 11.088 10.374zm20.9255789-19.994c5.244 0 7.942 2.47 7.942 6.156v7.866l2.166 2.166c.722.722.798 1.634.076 2.356l-.684.684c-.722.722-1.634.646-2.356-.076l-2.28-2.28c-1.102 1.824-3.192 3.078-5.928 3.078-4.788 0-7.258-2.28-7.258-5.7v-.304c0-3.648 2.128-5.7 7.676-5.7 1.406 0 2.812.19 4.066.456v-2.85c0-1.71-1.102-2.508-3.42-2.508-2.394 0-3.306.798-3.306 2.128v.19c0 .494-.228.798-.798.798h-2.622c-.532 0-.836-.304-.836-.836v-.19c0-3.382 2.622-5.434 7.562-5.434zm-.19 11.058c-2.698 0-3.686 1.026-3.686 2.66v.304c0 1.672 1.064 2.66 3.572 2.66 2.128 0 3.724-1.292 3.724-3.192v-1.938c-1.216-.342-2.394-.494-3.61-.494zm19.49 8.892c5.5860001 0 7.9420001-2.356 7.9420001-6.08v-.418c0-3.078-1.33-4.75-5.016-5.206l-4.9020001-.608c-1.102-.152-1.786-.456-1.786-1.71v-.418c0-1.368.836-2.204 3.686-2.204 2.5840001 0 3.4960001.684 3.4960001 2.052v.19c0 .38.228.646.684.646h2.736c.418 0 .722-.304.722-.76v-.152c0-3.154-2.204-5.282-7.6380001-5.282-5.624 0-7.866 2.356-7.866 6.08v.304c0 3.078 1.368 4.75 5.092 5.206l4.9020001.608c1.064.114 1.71.456 1.71 1.71v.494c0 1.406-1.102 2.242-3.7620001 2.242-2.85 0-3.8-.684-3.8-2.09v-.228c0-.418-.228-.646-.646-.646h-2.736c-.456 0-.76.266-.76.722v.228c0 3.192 2.28 5.32 7.942 5.32zm18.5980001 0c5.168 0 8.132-2.204 8.132-6.46v-.57c0-.532-.342-.912-.912-.912h-2.622c-.494 0-.836.342-.836.874v.646c0 2.09-1.178 3.04-3.724 3.04-2.584 0-3.876-1.292-3.876-3.952v-5.282c0-2.66 1.292-3.952 3.876-3.952 2.546 0 3.724.95 3.724 3.04v.532c0 .532.342.874.836.874h2.622c.57 0 .912-.38.912-.912v-.456c0-4.256-2.964-6.46-8.132-6.46-5.396 0-8.474 2.926-8.474 7.79v4.37c0 4.864 3.078 7.79 8.474 7.79zm18.636-19.95c5.244 0 7.942 2.47 7.942 6.156v7.866l2.166 2.166c.722.722.798 1.634.076 2.356l-.684.684c-.722.722-1.634.646-2.356-.076l-2.28-2.28c-1.102 1.824-3.192 3.078-5.928 3.078-4.788 0-7.258-2.28-7.258-5.7v-.304c0-3.648 2.128-5.7 7.676-5.7 1.406 0 2.812.19 4.066.456v-2.85c0-1.71-1.102-2.508-3.42-2.508-2.394 0-3.306.798-3.306 2.128v.19c0 .494-.228.798-.798.798h-2.622c-.532 0-.836-.304-.836-.836v-.19c0-3.382 2.622-5.434 7.562-5.434zm-.19 11.058c-2.698 0-3.686 1.026-3.686 2.66v.304c0 1.672 1.064 2.66 3.572 2.66 2.128 0 3.724-1.292 3.724-3.192v-1.938c-1.216-.342-2.394-.494-3.61-.494zm21.562 8.474c.57 0 1.026-.38 1.026-.95v-1.444c0-.57-.456-.95-1.026-.95h-2.204v-7.676c0-2.698 1.634-4.332 4.028-4.332h.608c1.292 0 2.128-.684 2.128-1.862v-.304c0-1.292-.798-2.014-2.432-2.014h-.38c-2.356 0-4.142 1.292-5.13 3.572l-2.774-2.774c-.722-.722-1.634-.798-2.356-.076l-.684.684c-.722.722-.646 1.634.076 2.356l2.356 2.356v10.07h-1.976c-.57 0-.988.38-.988.95v1.444c0 .57.418.95.988.95zm12.822-19.532c5.244 0 7.942 2.47 7.942 6.156v7.866l2.166 2.166c.722.722.798 1.634.076 2.356l-.684.684c-.722.722-1.634.646-2.356-.076l-2.28-2.28c-1.102 1.824-3.192 3.078-5.928 3.078-4.788 0-7.258-2.28-7.258-5.7v-.304c0-3.648 2.128-5.7 7.676-5.7 1.406 0 2.812.19 4.066.456v-2.85c0-1.71-1.102-2.508-3.42-2.508-2.394 0-3.306.798-3.306 2.128v.19c0 .494-.228.798-.798.798h-2.622c-.532 0-.836-.304-.836-.836v-.19c0-3.382 2.622-5.434 7.562-5.434zm-.19 11.058c-2.698 0-3.686 1.026-3.686 2.66v.304c0 1.672 1.064 2.66 3.572 2.66 2.128 0 3.724-1.292 3.724-3.192v-1.938c-1.216-.342-2.394-.494-3.61-.494z" fill="#333"/></g></svg>
